packages/ffe-icons/icons/open/300/sm/center_focus_weak.svg

<svg xmlns="http://www.w3.org/2000/svg" height="20" viewBox="0 -960 960 960" width="20"><path d="M228.309-164.001q-27.008 0-45.658-18.65-18.65-18.65-18.65-45.658v-129.692q0-11.049 7.419-18.524Q178.838-384 189.804-384q10.966 0 18.581 7.475T216-358.001v129.692q0 4.616 3.846 8.463 3.847 3.846 8.463 3.846h129.692q11.049 0 18.524 7.418Q384-201.164 384-190.198q0 10.966-7.475 18.581-7.475 7.616-18.524 7.616H228.309Zm503.382 0H601.999q-11.049 0-18.524-7.419Q576-178.838 576-189.804q0-10.966 7.475-18.581T601.999-216h129.692q4.616 0 8.463-3.846 3.846-3.847 3.846-8.463v-129.692q0-11.049 7.418-18.524Q758.836-384 769.802-384q10.966 0 18.581 7.475 7.616 7.475 7.616 18.524v129.692q0 27.008-18.65 45.658-18.65 18.65-45.658 18.65Zm-567.69-437.998v-129.692q0-27.008 18.65-45.658 18.65-18.65 45.658-18.65h129.692q11.049 0 18.524 7.419Q384-781.162 384-770.196q0 10.966-7.475 18.581T358.001-744H228.309q-4.616 0-8.463 3.846-3.846 3.847-3.846 8.463v129.692q0 11.049-7.418 18.524Q201.164-576 190.198-576q-10.966 0-18.581-7.475-7.616-7.475-7.616-18.524Zm579.999 0v-129.692q0-4.616-3.846-8.463-3.847-3.846-8.463-3.846H601.999q-11.049 0-18.524-7.418Q576-758.836 576-769.802q0-10.966 7.475-18.581 7.475-7.616 18.524-7.616h129.692q27.008 0 45.658 18.65 18.65 18.65 18.65 45.658v129.692q0 11.049-7.419 18.524Q781.162-576 770.196-576q-10.966 0-18.581-7.475T744-601.999ZM480-356.001q-51.749 0-87.874-36.125-36.125-36.125-36.125-87.874 0-51.749 36.125-87.874 36.125-36.125 87.874-36.125 51.749 0 87.874 36.125 36.125 36.125 36.125 87.874 0 51.749-36.125 87.874-36.125 36.125-87.874 36.125Zm.212-51.999Q510-408 531-429.212q21-21.213 21-51Q552-510 530.788-531q-21.213-21-51-21Q450-552 429-530.788q-21 21.213-21 51Q408-450 429.212-429q21.213 21 51 21ZM480-480Z"/></svg>

<svg xmlns="http://www.w3.org/2000/svg" height="20" viewBox="0 -960 960 960" width="20"><path d="M228.31-164q-27.01 0-45.66-18.65Q164-201.3 164-228.31V-358q0-11.05 7.42-18.53 7.42-7.47 18.38-7.47 10.97 0 18.58 7.47Q216-369.05 216-358v129.69q0 4.62 3.85 8.46 3.84 3.85 8.46 3.85H358q11.05 0 18.53 7.42 7.47 7.42 7.47 18.38 0 10.97-7.47 18.58Q369.05-164 358-164H228.31Zm503.38 0H602q-11.05 0-18.53-7.42-7.47-7.42-7.47-18.38 0-10.97 7.47-18.58Q590.95-216 602-216h129.69q4.62 0 8.46-3.85 3.85-3.84 3.85-8.46V-358q0-11.05 7.42-18.53 7.42-7.47 18.38-7.47 10.97 0 18.58 7.47Q796-369.05 796-358v129.69q0 27.01-18.65 45.66Q758.7-164 731.69-164ZM164-602v-129.69q0-27.01 18.65-45.66Q201.3-796 228.31-796H358q11.05 0 18.53 7.42 7.47 7.42 7.47 18.38 0 10.97-7.47 18.58Q369.05-744 358-744H228.31q-4.62 0-8.46 3.85-3.85 3.84-3.85 8.46V-602q0 11.05-7.42 18.53-7.42 7.47-18.38 7.47-10.97 0-18.58-7.47Q164-590.95 164-602Zm580 0v-129.69q0-4.62-3.85-8.46-3.84-3.85-8.46-3.85H602q-11.05 0-18.53-7.42-7.47-7.42-7.47-18.38 0-10.97 7.47-18.58Q590.95-796 602-796h129.69q27.01 0 45.66 18.65Q796-758.7 796-731.69V-602q0 11.05-7.42 18.53-7.42 7.47-18.38 7.47-10.97 0-18.58-7.47Q744-590.95 744-602ZM480-356q-51.75 0-87.87-36.13Q356-428.25 356-480q0-51.75 36.13-87.87Q428.25-604 480-604q51.75 0 87.87 36.13Q604-531.75 604-480q0 51.75-36.13 87.87Q531.75-356 480-356Zm.21-52Q510-408 531-429.21t21-51Q552-510 530.79-531t-51-21Q450-552 429-530.79t-21 51Q408-450 429.21-429t51 21Zm-.21-72Z"/></svg>
